images_sukapura_svg/cmd/32/grow.svg

<svg viewBox="0 0 32 32" xmlns="http://www.w3.org/2000/svg" xmlns:xlink="http://www.w3.org/1999/xlink"><linearGradient id="a" gradientUnits="userSpaceOnUse" x1="-1.830508" x2="-1.830508" y1="5.40678" y2="-1.59322"><stop offset="0" stop-color="#0040dd"/><stop offset="1" stop-color="#0a84ff"/></linearGradient><path d="m12.962891 3-9.8281254 26.017578h4.6992188l2.109375-6.058594h10.0781246l2.126954 6.058594h4.716796l-7.197265-19.017578h-.658203c-.78514-.0003977-1.547212-.508994-1.847657-1.234375-.300444-.725381-.121326-1.6242529.433594-2.1796875l.566406-.5664063-1.142578-3.0195312zm2.019531 5.5214844 3.769531 10.7929686h-7.541015z" fill="#696969"/><path d="m23.994141 2a1.0001477 1.0001477 0 0 0 -.691407.2929688l-5 5a1.0001477 1.0001477 0 0 0 .707032 1.7070312h10a1.0001477 1.0001477 0 0 0 .707031-1.7070312l-5-5a1.0001477 1.0001477 0 0 0 -.722656-.2929688z" fill="url(#a)"/></svg>

<?xml version="1.0" encoding="UTF-8" standalone="no"?>
<svg
   xmlns:dc="http://purl.org/dc/elements/1.1/"
   xmlns:cc="http://creativecommons.org/ns#"
   xmlns:rdf="http://www.w3.org/1999/02/22-rdf-syntax-ns#"
   xmlns:svg="http://www.w3.org/2000/svg"
   xmlns="http://www.w3.org/2000/svg"
   xmlns:xlink="http://www.w3.org/1999/xlink"
   xmlns:sodipodi="http://sodipodi.sourceforge.net/DTD/sodipodi-0.dtd"
   xmlns:inkscape="http://www.inkscape.org/namespaces/inkscape"
   viewBox="0 0 32 32"
   version="1.1"
   id="svg12"
   sodipodi:docname="grow.svg"
   inkscape:version="0.92.3 (unknown)">
  <metadata
     id="metadata18">
    <rdf:RDF>
      <cc:Work
         rdf:about="">
        <dc:format>image/svg+xml</dc:format>
        <dc:type
           rdf:resource="http://purl.org/dc/dcmitype/StillImage" />
        <dc:title></dc:title>
      </cc:Work>
    </rdf:RDF>
  </metadata>
  <defs
     id="defs16">
    <linearGradient
       inkscape:collect="always"
       xlink:href="#a"
       id="linearGradient865"
       x1="9.0071211"
       y1="3.58816"
       x2="5.0071211"
       y2="3.5660629"
       gradientUnits="userSpaceOnUse" />
    <linearGradient
       gradientTransform="translate(-25.830508,-3.5932203)"
       id="a"
       gradientUnits="userSpaceOnUse"
       x1="14"
       x2="13.79661"
       y1="22"
       y2="2.1355929">
      <stop
         offset="0"
         stop-color="#0040dd"
         id="stop2" />
      <stop
         offset="1"
         stop-color="#0a84ff"
         id="stop4" />
    </linearGradient>
    <linearGradient
       inkscape:collect="always"
       xlink:href="#a"
       id="linearGradient874"
       x1="24"
       y1="9"
       x2="24"
       y2="2"
       gradientUnits="userSpaceOnUse" />
  </defs>
  <sodipodi:namedview
     pagecolor="#ffffff"
     bordercolor="#666666"
     borderopacity="1"
     objecttolerance="10"
     gridtolerance="10"
     guidetolerance="10"
     inkscape:pageopacity="0"
     inkscape:pageshadow="2"
     inkscape:window-width="1366"
     inkscape:window-height="706"
     id="namedview14"
     showgrid="true"
     inkscape:zoom="5.2149125"
     inkscape:cx="32.16521"
     inkscape:cy="7.6066769"
     inkscape:window-x="0"
     inkscape:window-y="0"
     inkscape:window-maximized="1"
     inkscape:current-layer="svg12">
    <inkscape:grid
       type="xygrid"
       id="grid828" />
  </sodipodi:namedview>
  <g
     transform="matrix(1.3005202,0,0,1.3005202,0.69427767,0.39895884)"
     aria-label="A"
     style="font-style:normal;font-weight:normal;font-size:28.13967705px;line-height:1.25;font-family:sans-serif;letter-spacing:0px;word-spacing:0px;fill:#696969;fill-opacity:1;stroke:none;stroke-width:0.70349199"
     id="text832">
    <path
       style="font-style:normal;font-variant:normal;font-weight:500;font-stretch:normal;font-family:Roboto;-inkscape-font-specification:'Roboto Medium';fill:#696969;fill-opacity:1;stroke-width:0.91490555"
       d="M 12.962891 3 L 3.1347656 29.017578 L 7.8339844 29.017578 L 9.9433594 22.958984 L 20.021484 22.958984 L 22.148438 29.017578 L 26.865234 29.017578 L 19.667969 10 L 19.009766 10 C 18.224626 9.9996023 17.462554 9.491006 17.162109 8.765625 C 16.861665 8.040244 17.040783 7.1413721 17.595703 6.5859375 L 18.162109 6.0195312 L 17.019531 3 L 12.962891 3 z M 14.982422 8.5214844 L 18.751953 19.314453 L 11.210938 19.314453 L 14.982422 8.5214844 z "
       transform="matrix(0.76892308,0,0,0.76892308,-0.53384613,-0.30676866)"
       id="path834" />
  </g>
  <path
     style="fill:url(#linearGradient874);fill-opacity:1;stroke:none;stroke-width:2;stroke-linecap:round;stroke-linejoin:round"
     d="m 23.994141,2 a 1.0001477,1.0001477 0 0 0 -0.691407,0.2929688 l -5,5 A 1.0001477,1.0001477 0 0 0 19.009766,9 h 10 a 1.0001477,1.0001477 0 0 0 0.707031,-1.7070312 l -5,-5 A 1.0001477,1.0001477 0 0 0 23.994141,2 Z"
     id="path8" />
  <g
     transform="rotate(90,0.00356045,-11.003561)"
     id="g10-3"
     style="fill:url(#linearGradient865);fill-opacity:1;stroke:url(#linearGradient865);stroke-linecap:round;stroke-linejoin:round" />
</svg>
